X:1762
T:Eddie Kelly's #2
O:england
R:jig
H:Second part is sometimes played double
D:Dolores Keane
M:6/8
L:1/8
K:Em
GEF G2A|"S"Bee edc|~B3 GBG|AFD AFD|
GEF G2A|Bee edc|~B3 GBG|1 AFD E2F:|2 AFD E3||
|:gfe fed|Bee Bee|gfe fed|1 B^cd e2f:|2 B^cd ed=c||
BEF G2A "D.S."|


